X: 16025
T: Green Brechans O' Branton, The
R: jig
M: 6/8
K: Bminor
|:g|fef BcB|efe A2g|fef BcB|d3 f2g|
fef BcB|efe A2A|Bcd ecA|~d3 d2:|
|:g|fga afd|cde ecA|fga afd|f3 a2g|
fga afd|cde ecA|Bcd ecA|~d3 d2:|
|:g|fdB fdB|ecA ecA|fdB fdB|d3 f2g|
fdB fdB|ecA ecA|Bcd ecA|~d3 d2:|

